;FLAVOR:RepRap
;TIME:14537
;Filament used: 4.5639m
;Layer height: 0.15
;Generated with Cura_SteamEngine 2.5.0
M190 S60
M104 S200
M109 S200
;Sliced at: {day} {date} {time}
;Basic settings: Layer height: 0.15 Walls: 0.6 Fill: {fill_density}
;Print time: {print_time}
;Filament used: {filament_amount}m {filament_weight}g
;Filament cost: {filament_cost}
;M190 S{print_bed_temperature} ;Uncomment to add your own bed temperature line
;M109 S{print_temperature} ;Uncomment to add your own temperature line
G21        ;metric values
G90        ;absolute positioning
M82        ;set extruder to absolute mode
M107       ;start with the fan off

G28 X0 Y0  ;move X/Y to min endstops
G28 Z0     ;move Z to min endstops

G1 Z15.0 F{travel_speed} ;move the platform down 15mm

G92 E0                  ;zero the extruded length
G1 F140 E30              ;extrude 3mm of feed stock
G1 X20 Y0 F140 E30
G92 E0                  ;zero the extruded length again
G1 F{travel_speed}
;Put printing message on LCD screen
M117 Printing...

;LAYER_COUNT:232
;LAYER:0
M107
G0 F3600 X50.508 Y61.269 Z0.3
;TYPE:SKIRT
G1 F1800 X51.156 Y60.818 E0.01485
G1 X51.847 Y60.434 E0.02972
G1 X52.572 Y60.122 E0.04457
G1 X53.325 Y59.885 E0.05942
G1 X54.099 Y59.726 E0.07428
G1 X54.884 Y59.645 E0.08913
G1 X55.286 Y59.635 E0.09669
G1 X147.403 Y59.635 E1.82946
G1 X148.192 Y59.675 E1.84432
G1 X148.972 Y59.794 E1.85916
G1 X149.737 Y59.992 E1.87403
G1 X150.477 Y60.266 E1.88887
G1 X151.186 Y60.614 E1.90373
G1 X151.857 Y61.032 E1.9186
G1 X152.481 Y61.515 E1.93344
G1 X153.054 Y62.058 E1.94829
G1 X153.569 Y62.657 E1.96315
G1 X154.02 Y63.305 E1.978
G1 X154.404 Y63.996 E1.99287
G1 X154.716 Y64.721 E2.00772
G1 X154.953 Y65.474 E2.02257
G1 X155.112 Y66.248 E2.03743
G1 X155.193 Y67.033 E2.05228
G1 X155.203 Y67.435 E2.05984
G1 X155.203 Y147.433 E3.56465
G1 X155.163 Y148.222 E3.57951
G1 X155.044 Y149.002 E3.59435
G1 X154.846 Y149.767 E3.60921
G1 X154.572 Y150.507 E3.62406
G1 X154.224 Y151.216 E3.63891
G1 X153.806 Y151.887 E3.65379
G1 X153.323 Y152.511 E3.66863
G1 X152.78 Y153.084 E3.68348
G1 X152.181 Y153.599 E3.69834
G1 X151.533 Y154.05 E3.71319
G1 X150.842 Y154.434 E3.72806
G1 X150.117 Y154.746 E3.74291
G1 X149.364 Y154.983 E3.75775
G1 X148.59 Y155.142 E3.77262
G1 X147.805 Y155.223 E3.78746
G1 X147.403 Y155.233 E3.79503
G1 X55.286 Y155.234 E5.5278
G1 X54.497 Y155.194 E5.54266
G1 X53.717 Y155.075 E5.5575
G1 X52.952 Y154.877 E5.57237
G1 X52.212 Y154.603 E5.58721
G1 X51.503 Y154.255 E5.60207
G1 X50.832 Y153.838 E5.61693
G1 X50.208 Y153.354 E5.63178
G1 X49.635 Y152.811 E5.64663
G1 X49.12 Y152.212 E5.66149
G1 X48.669 Y151.564 E5.67634
G1 X48.285 Y150.874 E5.69119
G1 X47.973 Y150.148 E5.70606
G1 X47.736 Y149.395 E5.72091
G1 X47.577 Y148.621 E5.73577
G1 X47.496 Y147.836 E5.75062
G1 X47.486 Y147.434 E5.75818
G1 X47.486 Y67.435 E7.26301
G1 X47.526 Y66.646 E7.27787
G1 X47.645 Y65.866 E7.29271
G1 X47.843 Y65.101 E7.30757
G1 X48.117 Y64.361 E7.32242
G1 X48.465 Y63.652 E7.33727
G1 X48.883 Y62.981 E7.35214
G1 X49.366 Y62.357 E7.36699
G1 X49.909 Y61.784 E7.38184
G1 X50.508 Y61.269 E7.3967
G0 F3600 X50.897 Y61.477
G1 F1800 X51.539 Y61.054 E7.41116
G1 X52.222 Y60.699 E7.42564
G1 X52.937 Y60.418 E7.44009
G1 X53.679 Y60.212 E7.45457
G1 X54.437 Y60.084 E7.46903
G1 X55.286 Y60.035 E7.48503
G1 X147.403 Y60.035 E9.2178
G1 X148.171 Y60.075 E9.23227
G1 X148.931 Y60.194 E9.24674
G1 X149.674 Y60.392 E9.2612
G1 X150.393 Y60.666 E9.27568
G1 X151.079 Y61.013 E9.29014
G1 X151.726 Y61.429 E9.30461
G1 X152.326 Y61.91 E9.31907
G1 X152.873 Y62.451 E9.33354
G1 X153.361 Y63.046 E9.34802
G1 X153.784 Y63.688 E9.36248
G1 X154.139 Y64.371 E9.37696
G1 X154.42 Y65.086 E9.39141
G1 X154.626 Y65.828 E9.4059
G1 X154.754 Y66.586 E9.42036
G1 X154.803 Y67.435 E9.43635
G1 X154.803 Y147.433 E10.94116
G1 X154.763 Y148.201 E10.95563
G1 X154.644 Y148.961 E10.9701
G1 X154.446 Y149.704 E10.98456
G1 X154.172 Y150.423 E10.99903
G1 X153.825 Y151.109 E11.0135
G1 X153.409 Y151.756 E11.02796
G1 X152.928 Y152.356 E11.04243
G1 X152.387 Y152.903 E11.0569
G1 X151.792 Y153.391 E11.07138
G1 X151.15 Y153.814 E11.08584
G1 X150.467 Y154.169 E11.10032
G1 X149.752 Y154.45 E11.11477
G1 X149.01 Y154.656 E11.12925
G1 X148.252 Y154.784 E11.14371
G1 X147.403 Y154.833 E11.15971
G1 X55.286 Y154.834 E12.89248
G1 X54.518 Y154.794 E12.90695
G1 X53.758 Y154.675 E12.92142
G1 X53.015 Y154.477 E12.93588
G1 X52.296 Y154.203 E12.95036
G1 X51.61 Y153.856 E12.96482
G1 X50.963 Y153.44 E12.97929
G1 X50.363 Y152.959 E12.99375
G1 X49.816 Y152.418 E13.00822
G1 X49.328 Y151.823 E13.0227
G1 X48.905 Y151.181 E13.03716
G1 X48.55 Y150.498 E13.05164
G1 X48.269 Y149.783 E13.06609
G1 X48.063 Y149.042 E13.08056
G1 X47.935 Y148.283 E13.09504
G1 X47.886 Y147.434 E13.11103
G1 X47.886 Y67.435 E14.61586
G1 X47.926 Y66.667 E14.63033
G1 X48.045 Y65.907 E14.6448
G1 X48.243 Y65.164 E14.65926
G1 X48.517 Y64.445 E14.67373
G1 X48.864 Y63.759 E14.6882
G1 X49.28 Y63.112 E14.70266
G1 X49.761 Y62.512 E14.71713
G1 X50.302 Y61.965 E14.7316
G1 X50.897 Y61.477 E14.74608
G0 F3600 X51.284 Y61.692
G1 F1800 X51.92 Y61.297 E14.76016
G1 X52.594 Y60.973 E14.77423
G1 X53.299 Y60.723 E14.7883
G1 X54.027 Y60.549 E14.80238
G1 X54.769 Y60.454 E14.81645
G1 X55.286 Y60.435 E14.82618
G1 X147.403 Y60.435 E16.55895
G1 X148.15 Y60.475 E16.57302
G1 X148.888 Y60.594 E16.58709
G1 X149.61 Y60.792 E16.60117
G1 X150.306 Y61.065 E16.61523
G1 X150.969 Y61.412 E16.62931
G1 X151.592 Y61.827 E16.64339
G1 X152.166 Y62.306 E16.65745
G1 X152.687 Y62.843 E16.67153
G1 X153.146 Y63.433 E16.68559
G1 X153.541 Y64.069 E16.69967
G1 X153.865 Y64.743 E16.71374
G1 X154.115 Y65.448 E16.72781
G1 X154.289 Y66.176 E16.74189
G1 X154.384 Y66.918 E16.75596
G1 X154.403 Y67.435 E16.76569
G1 X154.403 Y147.433 E18.2705
G1 X154.363 Y148.18 E18.28457
G1 X154.244 Y148.918 E18.29863
G1 X154.046 Y149.64 E18.31271
G1 X153.773 Y150.336 E18.32678
G1 X153.426 Y150.999 E18.34085
G1 X153.011 Y151.622 E18.35493
G1 X152.532 Y152.196 E18.369
G1 X151.995 Y152.717 E18.38307
G1 X151.405 Y153.176 E18.39713
G1 X150.769 Y153.571 E18.41121
G1 X150.095 Y153.895 E18.42528
G1 X149.39 Y154.145 E18.43935
G1 X148.662 Y154.319 E18.45343
G1 X147.92 Y154.414 E18.4675
G1 X147.403 Y154.433 E18.47724
G1 X55.286 Y154.434 E20.21001
G1 X54.539 Y154.394 E20.22408
G1 X53.801 Y154.275 E20.23814
G1 X53.079 Y154.077 E20.25222
G1 X52.383 Y153.804 E20.26629
G1 X51.72 Y153.457 E20.28036
G1 X51.097 Y153.042 E20.29444
G1 X50.523 Y152.563 E20.30851
G1 X50.003 Y152.026 E20.32257
G1 X49.543 Y151.436 E20.33664
G1 X49.148 Y150.8 E20.35072
G1 X48.824 Y150.126 E20.36479
G1 X48.574 Y149.421 E20.37886
G1 X48.4 Y148.693 E20.39294
G1 X48.305 Y147.951 E20.40701
G1 X48.286 Y147.434 E20.41674
G1 X48.286 Y67.435 E21.92157
G1 X48.326 Y66.688 E21.93564
G1 X48.445 Y65.95 E21.9497
G1 X48.643 Y65.228 E21.96379
G1 X48.916 Y64.532 E21.97785
G1 X49.263 Y63.869 E21.99192
G1 X49.678 Y63.246 E22.00601
G1 X50.157 Y62.672 E22.02007
G1 X50.694 Y62.151 E22.03414
G1 X51.284 Y61.692 E22.0482
G0 F3600 X51.67 Y61.914
G1 F1800 X52.299 Y61.55 E22.06187
G1 X52.964 Y61.257 E22.07554
G1 X53.657 Y61.039 E22.08921
G1 X54.369 Y60.899 E22.10286
G1 X55.286 Y60.835 E22.12015
G1 X147.403 Y60.835 E23.85292
G1 X148.128 Y60.875 E23.86658
G1 X148.845 Y60.994 E23.88025
G1 X149.544 Y61.192 E23.89392
G1 X150.217 Y61.465 E23.90758
G1 X150.856 Y61.81 E23.92124
G1 X151.453 Y62.224 E23.93491
G1 X152.001 Y62.7 E23.94856
G1 X152.494 Y63.234 E23.96223
G1 X152.924 Y63.819 E23.97589
G1 X153.288 Y64.448 E23.98956
G1 X153.581 Y65.113 E24.00323
G1 X153.799 Y65.806 E24.01689
G1 X153.939 Y66.518 E24.03054
G1 X154.003 Y67.435 E24.04783
G1 X154.003 Y147.433 E25.55264
G1 X153.963 Y148.158 E25.5663
G1 X153.844 Y148.875 E25.57997
G1 X153.646 Y149.574 E25.59364
G1 X153.373 Y150.247 E25.6073
G1 X153.028 Y150.886 E25.62096
G1 X152.614 Y151.483 E25.63462
G1 X152.138 Y152.031 E25.64828
G1 X151.604 Y152.524 E25.66195
G1 X151.019 Y152.954 E25.67561
G1 X150.39 Y153.318 E25.68928
G1 X149.725 Y153.611 E25.70295
G1 X149.032 Y153.829 E25.71661
G1 X148.32 Y153.969 E25.73026
G1 X147.403 Y154.033 E25.74755
G1 X55.286 Y154.034 E27.48032
G1 X54.561 Y153.994 E27.49398
G1 X53.844 Y153.875 E27.50765
G1 X53.145 Y153.677 E27.52132
G1 X52.472 Y153.404 E27.53498
G1 X51.833 Y153.059 E27.54864
G1 X51.236 Y152.645 E27.56231
G1 X50.688 Y152.169 E27.57596
G1 X50.195 Y151.635 E27.58963
G1 X49.765 Y151.05 E27.60329
G1 X49.401 Y150.421 E27.61696
G1 X49.108 Y149.757 E27.63061
G1 X48.89 Y149.064 E27.64428
G1 X48.75 Y148.351 E27.65794
G1 X48.686 Y147.434 E27.67524
G1 X48.686 Y67.435 E29.18006
G1 X48.726 Y66.71 E29.19372
G1 X48.845 Y65.993 E29.20739
G1 X49.043 Y65.294 E29.22106
G1 X49.316 Y64.621 E29.23472
G1 X49.661 Y63.982 E29.24838
G1 X50.075 Y63.385 E29.26204
G1 X50.551 Y62.837 E29.2757
G1 X51.085 Y62.344 E29.28937
G1 X51.67 Y61.914 E29.30303
G0 F3600 X52.054 Y62.144
G1 F1800 X52.675 Y61.812 E29.31627
G1 X53.329 Y61.552 E29.32951
G1 X54.009 Y61.368 E29.34276
G1 X54.705 Y61.262 E29.35601
G1 X55.286 Y61.235 E29.36695
G1 X147.403 Y61.235 E31.09972
G1 X148.106 Y61.275 E31.11296
G1 X148.8 Y61.394 E31.12621
G1 X149.475 Y61.592 E31.13944
G1 X150.124 Y61.864 E31.15268
G1 X150.738 Y62.209 E31.16593
G1 X151.309 Y62.62 E31.17916
G1 X151.83 Y63.094 E31.19241
G1 X152.294 Y63.624 E31.20566
G1 X152.694 Y64.203 E31.2189
G1 X153.026 Y64.824 E31.23214
G1 X153.286 Y65.478 E31.24538
G1 X153.47 Y66.158 E31.25863
G1 X153.576 Y66.854 E31.27188
G1 X153.603 Y67.435 E31.28282
G1 X153.603 Y147.433 E32.78762
G1 X153.563 Y148.136 E32.80087
G1 X153.444 Y148.83 E32.81411
G1 X153.246 Y149.505 E32.82735
G1 X152.974 Y150.154 E32.84058
G1 X152.629 Y150.768 E32.85383
G1 X152.218 Y151.339 E32.86706
G1 X151.744 Y151.86 E32.88031
G1 X151.214 Y152.324 E32.89356
G1 X150.635 Y152.724 E32.9068
G1 X150.014 Y153.056 E32.92005
G1 X149.36 Y153.316 E32.93329
G1 X148.68 Y153.5 E32.94654
G1 X147.984 Y153.606 E32.95978
G1 X147.403 Y153.633 E32.97072
G1 X55.286 Y153.634 E34.70349
G1 X54.583 Y153.594 E34.71674
G1 X53.889 Y153.475 E34.72998
G1 X53.214 Y153.277 E34.74322
G1 X52.565 Y153.005 E34.75645
G1 X51.951 Y152.66 E34.7697
G1 X51.38 Y152.249 E34.78294
G1 X50.859 Y151.775 E34.79618
G1 X50.395 Y151.245 E34.80943
G1 X49.995 Y150.666 E34.82267
G1 X49.663 Y150.045 E34.83592
G1 X49.403 Y149.391 E34.84916
G1 X49.219 Y148.711 E34.86241
G1 X49.113 Y148.015 E34.87565
G1 X49.086 Y147.434 E34.88659
G1 X49.086 Y67.435 E36.39142
G1 X49.126 Y66.732 E36.40466
G1 X49.245 Y66.038 E36.41791
G1 X49.443 Y65.363 E36.43114
G1 X49.715 Y64.714 E36.44438
G1 X50.06 Y64.1 E36.45762
G1 X50.471 Y63.529 E36.47086
G1 X50.945 Y63.008 E36.48411
G1 X51.475 Y62.544 E36.49736
G1 X52.054 Y62.144 E36.5106
G0 F3600 X52.436 Y62.383
G1 F1800 X53.048 Y62.084 E36.52341
G1 X53.69 Y61.859 E36.53621
G1 X54.355 Y61.71 E36.54902
G1 X55.286 Y61.635 E36.56659
G1 X147.403 Y61.635 E38.29937
G1 X148.083 Y61.675 E38.31218
G1 X148.753 Y61.794 E38.32498
G1 X149.405 Y61.991 E38.33779
G1 X150.029 Y62.263 E38.3506
G1 X150.617 Y62.607 E38.36341
G1 X151.161 Y63.017 E38.37622
G1 X151.652 Y63.488 E38.38902
G1 X152.086 Y64.013 E38.40184
G1 X152.455 Y64.585 E38.41464
G1 X152.754 Y65.197 E38.42745
G1 X152.979 Y65.839 E38.44025
G1 X153.128 Y66.504 E38.45307
G1 X153.203 Y67.435 E38.47064
G1 X153.203 Y147.433 E39.97544
G1 X153.163 Y148.113 E39.98826
G1 X153.044 Y148.783 E40.00106
G1 X152.847 Y149.435 E40.01387
G1 X152.575 Y150.059 E40.02667
G1 X152.231 Y150.647 E40.03949
G1 X151.821 Y151.191 E40.0523
G1 X151.35 Y151.682 E40.0651
G1 X150.825 Y152.116 E40.07791
G1 X150.253 Y152.485 E40.09072
G1 X149.641 Y152.784 E40.10353
G1 X148.999 Y153.009 E40.11633
G1 X148.334 Y153.158 E40.12915
G1 X147.403 Y153.233 E40.14672
G1 X55.286 Y153.234 E41.87949
G1 X54.606 Y153.194 E41.8923
G1 X53.936 Y153.075 E41.9051
G1 X53.284 Y152.878 E41.91791
G1 X52.66 Y152.606 E41.93072
G1 X52.072 Y152.262 E41.94353
G1 X51.528 Y151.852 E41.95635
G1 X51.037 Y151.381 E41.96914
G1 X50.603 Y150.856 E41.98196
G1 X50.234 Y150.284 E41.99476
G1 X49.935 Y149.672 E42.00757
G1 X49.71 Y149.03 E42.02037
G1 X49.561 Y148.365 E42.03319
G1 X49.486 Y147.434 E42.05076
G1 X49.486 Y67.435 E43.55559
G1 X49.526 Y66.755 E43.5684
G1 X49.645 Y66.085 E43.5812
G1 X49.842 Y65.433 E43.59401
G1 X50.114 Y64.809 E43.60682
G1 X50.458 Y64.221 E43.61963
G1 X50.868 Y63.677 E43.63244
G1 X51.339 Y63.186 E43.64524
G1 X51.864 Y62.752 E43.65806
G1 X52.436 Y62.383 E43.67086
G0 F3600 X52.815 Y62.633
G1 F1800 X53.417 Y62.369 E43.68322
G1 X54.046 Y62.179 E43.69558
G1 X54.693 Y62.068 E43.70793
G1 X55.286 Y62.035 E43.7191
G1 X147.403 Y62.035 E45.45188
G1 X148.059 Y62.075 E45.46424
G1 X148.705 Y62.194 E45.4766
G1 X149.332 Y62.391 E45.48896
G1 X149.93 Y62.663 E45.50132
G1 X150.491 Y63.005 E45.51367
G1 X151.006 Y63.413 E45.52603
G1 X151.468 Y63.88 E45.53839
G1 X151.869 Y64.4 E45.55074
G1 X152.205 Y64.964 E45.56309
G1 X152.469 Y65.566 E45.57546
G1 X152.659 Y66.195 E45.58782
G1 X152.77 Y66.842 E45.60016
G1 X152.803 Y67.435 E45.61134
G1 X152.803 Y147.433 E47.11614
G1 X152.763 Y148.089 E47.12851
G1 X152.644 Y148.735 E47.14086
G1 X152.447 Y149.362 E47.15322
G1 X152.175 Y149.96 E47.16558
G1 X151.833 Y150.521 E47.17794
G1 X151.425 Y151.036 E47.1903
G1 X150.958 Y151.498 E47.20266
G1 X150.438 Y151.899 E47.21501
G1 X149.874 Y152.235 E47.22736
G1 X149.272 Y152.499 E47.23972
G1 X148.643 Y152.689 E47.25208
G1 X147.996 Y152.8 E47.26443
G1 X147.403 Y152.833 E47.2756
G1 X55.286 Y152.834 E49.00838
G1 X54.63 Y152.794 E49.02074
G1 X53.984 Y152.675 E49.03309
G1 X53.357 Y152.478 E49.04546
G1 X52.759 Y152.206 E49.05781
G1 X52.198 Y151.864 E49.07017
G1 X51.683 Y151.457 E49.08252
G1 X51.221 Y150.989 E49.09489
G1 X50.82 Y150.469 E49.10724
G1 X50.484 Y149.905 E49.11959
G1 X50.22 Y149.303 E49.13196
G1 X50.03 Y148.674 E49.14432
G1 X49.919 Y148.027 E49.15667
G1 X49.886 Y147.434 E49.16784
G1 X49.886 Y67.435 E50.67266
G1 X49.926 Y66.779 E50.68503
G1 X50.045 Y66.133 E50.69738
G1 X50.242 Y65.506 E50.70975
G1 X50.514 Y64.908 E50.7221
G1 X50.856 Y64.347 E50.73446
G1 X51.264 Y63.832 E50.74682
G1 X51.731 Y63.37 E50.75918
G1 X52.251 Y62.969 E50.77153
G1 X52.815 Y62.633 E50.78388
G0 F3600 X53.192 Y62.895
G1 F1800 X53.781 Y62.667 E50.79576
G1 X54.395 Y62.515 E50.80766
G1 X55.286 Y62.435 E50.82449
G1 X147.403 Y62.435 E52.55726
G1 X148.034 Y62.475 E52.56915
G1 X148.655 Y62.594 E52.58104
G1 X149.255 Y62.791 E52.59292
G1 X149.827 Y63.062 E52.60483
G1 X150.359 Y63.402 E52.61671
G1 X150.844 Y63.808 E52.6286
G1 X151.274 Y64.271 E52.64049
G1 X151.643 Y64.785 E52.65239
G1 X151.943 Y65.341 E52.66428
G1 X152.171 Y65.93 E52.67616
G1 X152.323 Y66.544 E52.68806
G1 X152.403 Y67.435 E52.70488
G1 X152.403 Y147.433 E54.20969
G1 X152.363 Y148.064 E54.22158
G1 X152.244 Y148.685 E54.23348
G1 X152.047 Y149.285 E54.24536
G1 X151.776 Y149.857 E54.25726
G1 X151.436 Y150.389 E54.26914
G1 X151.03 Y150.874 E54.28104
G1 X150.567 Y151.304 E54.29292
G1 X150.053 Y151.673 E54.30482
G1 X149.497 Y151.973 E54.31671
G1 X148.908 Y152.201 E54.32859
G1 X148.294 Y152.353 E54.34049
G1 X147.403 Y152.433 E54.35731
G1 X55.286 Y152.434 E56.09009
G1 X54.655 Y152.394 E56.10198
G1 X54.034 Y152.275 E56.11387
G1 X53.434 Y152.078 E56.12575
G1 X52.862 Y151.807 E56.13766
G1 X52.33 Y151.467 E56.14954
G1 X51.845 Y151.061 E56.16143
G1 X51.415 Y150.598 E56.17332
G1 X51.046 Y150.084 E56.18522
G1 X50.746 Y149.528 E56.19711
G1 X50.518 Y148.939 E56.20899
G1 X50.366 Y148.325 E56.22088
G1 X50.286 Y147.434 E56.23771
G1 X50.286 Y67.435 E57.74254
G1 X50.326 Y66.804 E57.75443
G1 X50.445 Y66.183 E57.76632
G1 X50.642 Y65.583 E57.7782
G1 X50.913 Y65.011 E57.79011
G1 X51.253 Y64.479 E57.80199
G1 X51.659 Y63.994 E57.81388
G1 X52.122 Y63.564 E57.82577
G1 X52.636 Y63.195 E57.83767
G1 X53.192 Y62.895 E57.84956
G0 F3600 X53.564 Y63.169
G1 F1800 X54.14 Y62.98 E57.86096
G1 X54.736 Y62.868 E57.87237
G1 X55.286 Y62.835 E57.88273
G1 X147.403 Y62.835 E59.6155
G1 X148.008 Y62.875 E59.62691
G1 X148.602 Y62.994 E59.6383
G1 X149.176 Y63.19 E59.64971
G1 X149.719 Y63.461 E59.66113
G1 X150.222 Y63.8 E59.67254
G1 X150.675 Y64.202 E59.68393
G1 X151.072 Y64.66 E59.69533
G1 X151.405 Y65.167 E59.70674
G1 X151.669 Y65.713 E59.71815
G1 X151.858 Y66.289 E59.72955
G1 X151.97 Y66.885 E59.74096
G1 X152.003 Y67.435 E59.75133
